; G-Code generated by Simplify3D(R) Version 4.0.1
; Nov 8, 2018 at 9:37:59 AM
; Settings Summary
;   processName,Process1
;   applyToModels,3DBenchy
;   profileName,Kossel T1 (modified)
;   profileVersion,2018-10-26 18:23:33
;   baseProfile,Creality CR-10(2)
;   printMaterial,PLA
;   printQuality,Fast
;   printExtruders,
;   extruderName,Primary Extruder
;   extruderToolheadNumber,0
;   extruderDiameter,0.4
;   extruderAutoWidth,0
;   extruderWidth,0.4
;   extrusionMultiplier,0.96
;   extruderUseRetract,1
;   extruderRetractionDistance,6
;   extruderExtraRestartDistance,0
;   extruderRetractionZLift,0
;   extruderRetractionSpeed,3600
;   extruderUseCoasting,1
;   extruderCoastingDistance,0.2
;   extruderUseWipe,0
;   extruderWipeDistance,4
;   primaryExtruder,0
;   layerHeight,0.2
;   topSolidLayers,5
;   bottomSolidLayers,5
;   perimeterOutlines,4
;   printPerimetersInsideOut,1
;   startPointOption,2
;   startPointOriginX,0
;   startPointOriginY,0
;   sequentialIslands,0
;   spiralVaseMode,0
;   firstLayerHeightPercentage,150
;   firstLayerWidthPercentage,150
;   firstLayerUnderspeed,0.25
;   useRaft,0
;   raftExtruder,0
;   raftTopLayers,3
;   raftBaseLayers,2
;   raftOffset,3
;   raftSeparationDistance,0.14
;   raftTopInfill,100
;   aboveRaftSpeedMultiplier,0.3
;   useSkirt,1
;   skirtExtruder,0
;   skirtLayers,1
;   skirtOutlines,4
;   skirtOffset,2
;   usePrimePillar,0
;   primePillarExtruder,999
;   primePillarWidth,12
;   primePillarLocation,7
;   primePillarSpeedMultiplier,1
;   useOozeShield,0
;   oozeShieldExtruder,999
;   oozeShieldOffset,2
;   oozeShieldOutlines,1
;   oozeShieldSidewallShape,1
;   oozeShieldSidewallAngle,30
;   oozeShieldSpeedMultiplier,1
;   infillExtruder,0
;   internalInfillPattern,Full Honeycomb
;   externalInfillPattern,Rectilinear
;   infillPercentage,20
;   outlineOverlapPercentage,15
;   infillExtrusionWidthPercentage,100
;   minInfillLength,5
;   infillLayerInterval,1
;   internalInfillAngles,0,120,-120
;   overlapInternalInfillAngles,0
;   externalInfillAngles,45,-45
;   generateSupport,0
;   supportExtruder,0
;   supportInfillPercentage,25
;   supportExtraInflation,0
;   supportBaseLayers,0
;   denseSupportExtruder,0
;   denseSupportLayers,0
;   denseSupportInfillPercentage,70
;   supportLayerInterval,1
;   supportHorizontalPartOffset,0.35
;   supportUpperSeparationLayers,1
;   supportLowerSeparationLayers,1
;   supportType,1
;   supportGridSpacing,4
;   maxOverhangAngle,50
;   supportAngles,45,-45
;   temperatureName,Primary Extruder,Heated Bed
;   temperatureNumber,0,0
;   temperatureSetpointCount,1,1
;   temperatureSetpointLayers,1,1
;   temperatureSetpointTemperatures,220,65
;   temperatureStabilizeAtStartup,1,1
;   temperatureHeatedBed,0,1
;   temperatureRelayBetweenLayers,0,0
;   temperatureRelayBetweenLoops,0,0
;   fanLayers,1,2
;   fanSpeeds,0,90
;   blipFanToFullPower,1
;   adjustSpeedForCooling,1
;   minSpeedLayerTime,15
;   minCoolingSpeedSlowdown,20
;   increaseFanForCooling,0
;   minFanLayerTime,45
;   maxCoolingFanSpeed,100
;   increaseFanForBridging,1
;   bridgingFanSpeed,100
;   use5D,1
;   relativeEdistances,0
;   allowEaxisZeroing,1
;   independentExtruderAxes,0
;   includeM10123,0
;   stickySupport,1
;   applyToolheadOffsets,0
;   gcodeXoffset,0
;   gcodeYoffset,0
;   gcodeZoffset,0
;   overrideMachineDefinition,1
;   machineTypeOverride,1
;   strokeXoverride,230
;   strokeYoverride,230
;   strokeZoverride,300
;   originOffsetXoverride,115
;   originOffsetYoverride,115
;   originOffsetZoverride,0
;   homeXdirOverride,-1
;   homeYdirOverride,-1
;   homeZdirOverride,-1
;   flipXoverride,1
;   flipYoverride,-1
;   flipZoverride,1
;   toolheadOffsets,0,0|0,0|0,0|0,0|0,0|0,0
;   overrideFirmwareConfiguration,1
;   firmwareTypeOverride,RepRap (Marlin/Repetier/Sprinter)
;   GPXconfigOverride,r2
;   baudRateOverride,115200
;   overridePrinterModels,1
;   printerModelsOverride
;   startingGcode,M204 P1000,M205 T0 X10 Y10 Z10,G21,G90,M82,M107,M900 0.6,G28,,M117 Heating bed...,M190 S[bed0_temperature],G28,,G1 X-100 Y-100 Z15.0 F2000,G92 E0,,M117 Heating nozzle...,M109 S[extruder0_temperature],,G92 E0,G1 F1000,M117 Printing...,
;   layerChangeGcode,
;   retractionGcode,
;   toolChangeGcode,
;   endingGcode,M104 S0,M140 S0,M107,G91,G1 E-1 F300,G1 Z+1.0 E-3 F2000,G28,M84,G90
;   exportFileFormat,gcode
;   celebration,0
;   celebrationSong,Star Wars
;   postProcessing,
;   defaultSpeed,2400
;   outlineUnderspeed,0.5
;   solidInfillUnderspeed,0.8
;   supportUnderspeed,0.8
;   rapidXYspeed,7200
;   rapidZspeed,1002
;   minBridgingArea,50
;   bridgingExtraInflation,0
;   bridgingExtrusionMultiplier,1
;   bridgingSpeedMultiplier,1
;   useFixedBridgingAngle,0
;   fixedBridgingAngle,0
;   applyBridgingToPerimeters,0
;   filamentDiameters,1.75|1.75|1.75|1.75|1.75|1.75
;   filamentPricesPerKg,20|46|46|46|46|46
;   filamentDensities,1.25|1.25|1.25|1.25|1.25|1.25
;   useMinPrintHeight,0
;   minPrintHeight,80
;   useMaxPrintHeight,0
;   maxPrintHeight,80
;   useDiaphragm,0
;   diaphragmLayerInterval,20
;   robustSlicing,1
;   mergeAllIntoSolid,0
;   onlyRetractWhenCrossingOutline,0
;   retractBetweenLayers,1
;   useRetractionMinTravel,1
;   retractionMinTravel,3
;   retractWhileWiping,1
;   onlyWipeOutlines,1
;   avoidCrossingOutline,1
;   maxMovementDetourFactor,3
;   toolChangeRetractionDistance,12
;   toolChangeExtraRestartDistance,-0.5
;   toolChangeRetractionSpeed,600
;   externalThinWallType,0
;   internalThinWallType,2
;   thinWallAllowedOverlapPercentage,10
;   singleExtrusionMinLength,1
;   singleExtrusionMinPrintingWidthPercentage,50
;   singleExtrusionMaxPrintingWidthPercentage,200
;   singleExtrusionEndpointExtension,0.2
;   horizontalSizeCompensation,0
G90
M82
M106 S255
G4 P500
M106 S0
M204 P1000
M205 T0 X10 Y10 Z10
G21
G90
M82
M107
M900 0.6
G28
M117 Heating bed...
M190 S65
G28 X1
G1 X-100 Y-100 Z15.0 F2000
G92 E0
M117 Heating nozzle...
M109 S220
G92 E0
G1 F1000
M117 Printing...
G92 E0
G1 E-6.0000 F3600
G1 Z0.300 F1002
; process Process1
; layer 1, Z = 0.300
T0
; tool H0.300 W0.600
; skirt
G1 X-0.251 Y-11.531 F7200
G1 E0.0000 F1080
G92 E0
G1 X-0.227 Y-11.532 E0.0018 F600
G1 X-0.132 Y-11.534 E0.0086
G1 X-0.108 Y-11.534 E0.0103
G1 X0.586 Y-11.527 E0.0602
G1 X0.605 Y-11.527 E0.0616
G1 X0.681 Y-11.524 E0.0670
G1 X0.700 Y-11.523 E0.0684
G1 X1.826 Y-11.449 E0.1494
G1 X1.853 Y-11.447 E0.1514
G1 X1.956 Y-11.436 E0.1588
G1 X1.982 Y-11.433 E0.1607
G1 X3.332 Y-11.239 E0.2586
G1 X3.359 Y-11.235 E0.2607
G1 X3.466 Y-11.215 E0.2685
G1 X3.494 Y-11.209 E0.2705
G1 X4.690 Y-10.938 E0.3586
G1 X4.712 Y-10.933 E0.3603
G1 X4.796 Y-10.911 E0.3665
G1 X4.818 Y-10.905 E0.3681
G1 X5.699 Y-10.645 E0.4341
G1 X5.721 Y-10.638 E0.4358
G1 X5.807 Y-10.609 E0.4423
G1 X5.829 Y-10.602 E0.4439
G1 X7.007 Y-10.166 E0.5342
G1 X7.028 Y-10.158 E0.5358
G1 X7.112 Y-10.124 E0.5423
G1 X7.133 Y-10.115 E0.5439
G1 X7.942 Y-9.753 E0.6076
G1 X7.960 Y-9.744 E0.6091
G1 X8.030 Y-9.711 E0.6146
G1 X8.048 Y-9.702 E0.6161
G1 X8.915 Y-9.253 E0.6862
G1 X8.934 Y-9.243 E0.6878
G1 X9.009 Y-9.201 E0.6939
G1 X9.028 Y-9.190 E0.6955
G1 X9.978 Y-8.619 E0.7751
G1 X10.003 Y-8.604 E0.7772
G1 X10.096 Y-8.542 E0.7852
G1 X10.120 Y-8.526 E0.7873
G1 X11.423 Y-7.588 E0.9027
G1 X11.446 Y-7.571 E0.9047
G1 X11.533 Y-7.503 E0.9127
G1 X11.555 Y-7.485 E0.9147
G1 X12.343 Y-6.813 E0.9891
G1 X12.364 Y-6.795 E0.9911
G1 X12.442 Y-6.723 E0.9988
G1 X12.462 Y-6.703 E1.0008
G1 X13.549 Y-5.618 E1.1111
G1 X13.570 Y-5.597 E1.1132
G1 X13.646 Y-5.514 E1.1214
G1 X13.666 Y-5.492 E1.1235
G1 X14.446 Y-4.570 E1.2102
G1 X14.461 Y-4.551 E1.2119
G1 X14.517 Y-4.480 E1.2185
G1 X14.532 Y-4.461 E1.2202
G1 X15.128 Y-3.652 E1.2924
G1 X15.142 Y-3.632 E1.2942
G1 X15.196 Y-3.553 E1.3010
G1 X15.210 Y-3.532 E1.3028
G1 X15.905 Y-2.434 E1.3962
G1 X15.929 Y-2.392 E1.3996
G1 X16.017 Y-2.230 E1.4129
G1 X16.038 Y-2.187 E1.4163
G1 X16.276 Y-1.666 E1.4575
G1 X16.305 Y-1.588 E1.4635
G1 X16.403 Y-1.283 E1.4865
G1 X16.423 Y-1.202 E1.4924
G1 X16.551 Y-0.541 E1.5408
G1 X16.562 Y-0.449 E1.5475
G1 X16.583 Y-0.093 E1.5731
G1 X16.582 Y-0.000 E1.5798
G1 X16.530 Y0.698 E1.6301
G1 X16.516 Y0.796 E1.6372
G1 X16.434 Y1.171 E1.6647
G1 X16.406 Y1.266 E1.6719
G1 X16.146 Y1.962 E1.7252
G1 X16.120 Y2.022 E1.7299
G1 X16.010 Y2.250 E1.7481
G1 X15.978 Y2.308 E1.7529
G1 X15.524 Y3.056 E1.8157
G1 X15.515 Y3.072 E1.8171
G1 X15.476 Y3.132 E1.8222
G1 X15.466 Y3.147 E1.8235
G1 X14.969 Y3.876 E1.8869
G1 X14.959 Y3.890 E1.8881
G1 X14.921 Y3.943 E1.8928
G1 X14.911 Y3.956 E1.8940
G1 X14.474 Y4.536 E1.9462
G1 X14.461 Y4.552 E1.9476
G1 X14.412 Y4.613 E1.9533
G1 X14.400 Y4.629 E1.9547
G1 X13.680 Y5.476 E2.0346
G1 X13.664 Y5.494 E2.0363
G1 X13.600 Y5.564 E2.0431
G1 X13.583 Y5.582 E2.0449
G1 X12.739 Y6.445 E2.1316
G1 X12.723 Y6.461 E2.1333
G1 X12.659 Y6.521 E2.1395
G1 X12.643 Y6.537 E2.1412
G1 X11.973 Y7.138 E2.2058
G1 X11.958 Y7.151 E2.2073
G1 X11.899 Y7.201 E2.2128
G1 X11.884 Y7.214 E2.2142
G1 X11.144 Y7.805 E2.2823
G1 X11.129 Y7.817 E2.2837
G1 X11.068 Y7.863 E2.2891
G1 X11.052 Y7.875 E2.2905
G1 X10.342 Y8.380 E2.3531
G1 X10.326 Y8.391 E2.3545
G1 X10.264 Y8.433 E2.3600
G1 X10.247 Y8.444 E2.3614
G1 X9.457 Y8.942 E2.4285
G1 X9.440 Y8.953 E2.4299
G1 X9.374 Y8.992 E2.4354
G1 X9.357 Y9.001 E2.4368
G1 X8.551 Y9.449 E2.5031
G1 X8.534 Y9.458 E2.5045
G1 X8.468 Y9.492 E2.5098
G1 X8.451 Y9.500 E2.5111
G1 X7.650 Y9.889 E2.5751
G1 X7.633 Y9.897 E2.5765
G1 X7.566 Y9.927 E2.5817
G1 X7.548 Y9.935 E2.5831
G1 X6.735 Y10.276 E2.6465
G1 X6.715 Y10.284 E2.6480
G1 X6.641 Y10.312 E2.6537
G1 X6.621 Y10.319 E2.6552
G1 X5.666 Y10.655 E2.7280
G1 X5.646 Y10.662 E2.7295
G1 X5.568 Y10.686 E2.7353
G1 X5.548 Y10.693 E2.7369
G1 X4.624 Y10.956 E2.8059
G1 X4.606 Y10.961 E2.8073
G1 X4.534 Y10.979 E2.8126
G1 X4.515 Y10.984 E2.8140
G1 X3.696 Y11.169 E2.8743
G1 X3.678 Y11.173 E2.8757
G1 X3.607 Y11.187 E2.8808
G1 X3.589 Y11.190 E2.8822
G1 X2.678 Y11.346 E2.9485
G1 X2.660 Y11.348 E2.9498
G1 X2.593 Y11.358 E2.9547
G1 X2.575 Y11.361 E2.9560
G1 X1.812 Y11.451 E3.0112
G1 X1.787 Y11.454 E3.0130
G1 X1.688 Y11.462 E3.0202
G1 X1.662 Y11.464 E3.0220
G1 X0.084 Y11.534 E3.1355
G1 X0.059 Y11.535 E3.1373
G1 X-0.040 Y11.535 E3.1444
G1 X-0.065 Y11.535 E3.1462
G1 X-0.820 Y11.514 E3.2005
G1 X-0.831 Y11.513 E3.2013
G1 X-0.876 Y11.511 E3.2045
G1 X-0.887 Y11.511 E3.2053
G1 X-24.521 Y10.067 E4.9063
G1 X-24.554 Y10.064 E4.9088
G1 X-24.685 Y10.050 E4.9182
G1 X-24.718 Y10.045 E4.9206
G1 X-25.291 Y9.954 E4.9623
G1 X-25.360 Y9.939 E4.9674
G1 X-25.625 Y9.869 E4.9871
G1 X-25.692 Y9.848 E4.9921
G1 X-26.288 Y9.623 E5.0379
G1 X-26.355 Y9.594 E5.0431
G1 X-26.607 Y9.467 E5.0634
G1 X-26.671 Y9.431 E5.0687
G1 X-27.211 Y9.085 E5.1147
G1 X-27.273 Y9.041 E5.1202
G1 X-27.501 Y8.857 E5.1412
G1 X-27.557 Y8.806 E5.1467
G1 X-28.002 Y8.361 E5.1920
G1 X-28.051 Y8.307 E5.1972
G1 X-28.227 Y8.090 E5.2172
G1 X-28.269 Y8.031 E5.2224
G1 X-28.633 Y7.473 E5.2703
G1 X-28.677 Y7.396 E5.2766
G1 X-28.825 Y7.090 E5.3011
G1 X-28.859 Y7.008 E5.3074
G1 X-29.131 Y6.203 E5.3685
G1 X-29.152 Y6.127 E5.3742
G1 X-29.216 Y5.829 E5.3961
G1 X-29.228 Y5.751 E5.4018
G1 X-29.285 Y5.188 E5.4424
G1 X-29.287 Y5.153 E5.4449
G1 X-29.294 Y5.019 E5.4545
G1 X-29.295 Y4.984 E5.4570
G1 X-29.296 Y-4.936 E6.1697
G1 X-29.295 Y-4.968 E6.1720
G1 X-29.290 Y-5.093 E6.1810
G1 X-29.287 Y-5.125 E6.1833
G1 X-29.234 Y-5.701 E6.2249
G1 X-29.225 Y-5.767 E6.2297
G1 X-29.177 Y-6.020 E6.2481
G1 X-29.162 Y-6.085 E6.2529
G1 X-28.983 Y-6.699 E6.2989
G1 X-28.960 Y-6.767 E6.3040
G1 X-28.857 Y-7.021 E6.3237
G1 X-28.827 Y-7.085 E6.3288
G1 X-28.521 Y-7.665 E6.3759
G1 X-28.477 Y-7.738 E6.3821
G1 X-28.288 Y-8.009 E6.4058
G1 X-28.235 Y-8.076 E6.4119
G1 X-27.704 Y-8.670 E6.4692
G1 X-27.642 Y-8.731 E6.4754
G1 X-27.389 Y-8.951 E6.4995
G1 X-27.320 Y-9.004 E6.5058
G1 X-26.797 Y-9.357 E6.5511
G1 X-26.744 Y-9.389 E6.5555
G1 X-26.536 Y-9.504 E6.5726
G1 X-26.481 Y-9.531 E6.5770
G1 X-25.992 Y-9.747 E6.6154
G1 X-25.920 Y-9.775 E6.6210
G1 X-25.635 Y-9.865 E6.6425
G1 X-25.560 Y-9.884 E6.6480
G1 X-24.818 Y-10.030 E6.7023
G1 X-24.771 Y-10.038 E6.7057
G1 X-24.591 Y-10.061 E6.7188
G1 X-24.544 Y-10.066 E6.7222
G1 X-0.451 Y-11.519 E8.4562
G1 X-0.251 Y-11.531 F600
G1 X-0.231 Y-11.131 F7200
G92 E0
G1 X-0.213 Y-11.132 E0.0013 F600
G1 X-0.126 Y-11.134 E0.0076
G1 X-0.108 Y-11.134 E0.0088
G1 X0.579 Y-11.127 E0.0582
G1 X0.593 Y-11.127 E0.0592
G1 X0.663 Y-11.124 E0.0642
G1 X0.677 Y-11.124 E0.0652
G1 X1.796 Y-11.050 E0.1458
G1 X1.815 Y-11.048 E0.1472
G1 X1.910 Y-11.038 E0.1541
G1 X1.929 Y-11.036 E0.1554
G1 X3.271 Y-10.844 E0.2528
G1 X3.291 Y-10.841 E0.2542
G1 X3.390 Y-10.822 E0.2615
G1 X3.409 Y-10.818 E0.2629
G1 X4.599 Y-10.549 E0.3505
G1 X4.614 Y-10.545 E0.3517
G1 X4.692 Y-10.525 E0.3575
G1 X4.708 Y-10.520 E0.3586
G1 X5.582 Y-10.262 E0.4241
G1 X5.598 Y-10.257 E0.4253
G1 X5.677 Y-10.231 E0.4313
G1 X5.693 Y-10.225 E0.4325
G1 X6.865 Y-9.792 E0.5223
G1 X6.881 Y-9.786 E0.5235
G1 X6.957 Y-9.755 E0.5294
G1 X6.973 Y-9.748 E0.5306
G1 X7.776 Y-9.389 E0.5939
G1 X7.789 Y-9.383 E0.5949
G1 X7.854 Y-9.352 E0.6000
G1 X7.867 Y-9.345 E0.6011
G1 X8.728 Y-8.899 E0.6708
G1 X8.742 Y-8.892 E0.6719
G1 X8.811 Y-8.853 E0.6776
G1 X8.825 Y-8.845 E0.6787
G1 X9.768 Y-8.279 E0.7578
G1 X9.786 Y-8.267 E0.7593
G1 X9.873 Y-8.211 E0.7667
G1 X9.890 Y-8.199 E0.7682
G1 X11.186 Y-7.266 E0.8830
G1 X11.203 Y-7.253 E0.8845
G1 X11.283 Y-7.190 E0.8918
G1 X11.299 Y-7.177 E0.8933
G1 X12.081 Y-6.511 E0.9671
G1 X12.096 Y-6.498 E0.9685
G1 X12.168 Y-6.431 E0.9756
G1 X12.183 Y-6.417 E0.9770
G1 X13.264 Y-5.338 E1.0868
G1 X13.278 Y-5.323 E1.0883
G1 X13.349 Y-5.246 E1.0958
G1 X13.363 Y-5.230 E1.0973
G1 X14.139 Y-4.314 E1.1835
G1 X14.149 Y-4.301 E1.1848
G1 X14.202 Y-4.235 E1.1908
G1 X14.212 Y-4.221 E1.1920
G1 X14.804 Y-3.417 E1.2637
G1 X14.814 Y-3.403 E1.2650
G1 X14.864 Y-3.330 E1.2714
G1 X14.874 Y-3.315 E1.2726
G1 X15.563 Y-2.225 E1.3653
G1 X15.580 Y-2.196 E1.3677
G1 X15.662 Y-2.046 E1.3800
G1 X15.677 Y-2.015 E1.3825
G1 X15.907 Y-1.511 E1.4223
G1 X15.928 Y-1.455 E1.4266
G1 X16.018 Y-1.172 E1.4479
G1 X16.033 Y-1.115 E1.4521
G1 X16.155 Y-0.478 E1.4987
G1 X16.164 Y-0.413 E1.5035
G1 X16.183 Y-0.083 E1.5272
G1 X16.182 Y-0.016 E1.5320
G1 X16.132 Y0.654 E1.5803
G1 X16.122 Y0.724 E1.5854
G1 X16.046 Y1.071 E1.6109
G1 X16.026 Y1.139 E1.6160
G1 X15.775 Y1.813 E1.6676
G1 X15.756 Y1.856 E1.6710
G1 X15.654 Y2.067 E1.6879
G1 X15.631 Y2.108 E1.6912
G1 X15.184 Y2.846 E1.7532
G1 X15.177 Y2.857 E1.7542
G1 X15.141 Y2.913 E1.7589
G1 X15.134 Y2.924 E1.7599
G1 X14.640 Y3.649 E1.8229
G1 X14.633 Y3.659 E1.8238
G1 X14.598 Y3.708 E1.8281
G1 X14.591 Y3.717 E1.8290
G1 X14.156 Y4.293 E1.8808
G1 X14.147 Y4.305 E1.8818
G1 X14.102 Y4.361 E1.8870
G1 X14.093 Y4.372 E1.8881
G1 X13.378 Y5.214 E1.9674
G1 X13.366 Y5.227 E1.9687
G1 X13.307 Y5.292 E1.9750
G1 X13.295 Y5.305 E1.9763
G1 X12.455 Y6.163 E2.0625
G1 X12.444 Y6.174 E2.0637
G1 X12.385 Y6.230 E2.0695
G1 X12.373 Y6.241 E2.0706
G1 X11.708 Y6.839 E2.1349
G1 X11.697 Y6.848 E2.1359
G1 X11.643 Y6.894 E2.1410
G1 X11.632 Y6.903 E2.1420
G1 X10.896 Y7.491 E2.2097
G1 X10.885 Y7.500 E2.2107
G1 X10.829 Y7.542 E2.2157
G1 X10.818 Y7.550 E2.2167
G1 X10.113 Y8.052 E2.2789
G1 X10.101 Y8.060 E2.2799
G1 X10.043 Y8.099 E2.2850
G1 X10.032 Y8.107 E2.2860
G1 X9.246 Y8.602 E2.3527
G1 X9.234 Y8.610 E2.3537
G1 X9.173 Y8.646 E2.3588
G1 X9.161 Y8.653 E2.3598
G1 X8.359 Y9.097 E2.4257
G1 X8.347 Y9.104 E2.4267
G1 X8.286 Y9.135 E2.4316
G1 X8.274 Y9.142 E2.4325
G1 X7.478 Y9.528 E2.4961
G1 X7.466 Y9.533 E2.4971
G1 X7.404 Y9.561 E2.5020
G1 X7.391 Y9.567 E2.5030
G1 X6.583 Y9.906 E2.5659
G1 X6.569 Y9.911 E2.5670
G1 X6.500 Y9.938 E2.5723
G1 X6.486 Y9.943 E2.5734
